X:204
T: WER HAT DEN SCHLUESSEL ZUM GARTEN
N: K2606
O: Europa, Mitteleuropa, Deutschland, Kassel
R: Kinder - Lied, Gesellschafts - Spiel
M: 2/4
L: 1/16
K: C
C2 | G2G2AAA2 | G4E2z2 |
G2F2E2C2 | G2F2E2C2 |
G2G2AAA2 | GGF2E2C2 |
G2F2E2C2 | G2F2E4 |
G2F2E4 | G2F2E4 |
G2G2AAA2 | GGF2E4

